X:1
T:Vater Unser, 88.88.88
T:Vater Unser, 88.88.88
T:Geistliche Lieder, 1539; harm. by J. S. Bach
T:Public Domain Courtesy of the Cyber Hymnal™
C:Geistliche Lieder, 1539; harm. by J. S. Bach
Z:Public Domain
Z:Courtesy of the Cyber Hymnal™
%%score ( 1 2 ) ( 3 4 )
L:1/8
Q:1/4=105
M:4/4
K:Eb
V:1 treble 
V:2 treble 
V:3 bass 
V:4 bass 
V:1
 [EG]2 | [DG]2 [CE]2 F2 [EG]2 | [CE]2 [=B,D]2 C2 [EG]2 | [EG]2 F2 [FB]2 [EG]2 | %4
 [CE]2 [CF]2 !fermata![DG]2 [EG]2 | [DB]2 ([Ec][Fd]) [Ge]2 [Fd]2 | c2 [G=B]2 [=Ec]2 [Fc]2 | %7
 [Fd]2 [^Fc]2 [GB]2 =A2 | G2 [D^F]2 !fermata![DG]2 [=Fc]2 | [FB]2 [E=A]2 [DB]2 G2 | %10
 [CG]2 [DF]2 E2 [CG]2 | [FA]2 ([EG][DF]) [CE]2 [DF]2 | [CE]2 [=B,D]2 !fermata!C2 |] %13
V:2
 x2 | x4 (CD) x2 | x4 C2 x2 | x2 (DE) x4 | x8 | x8 | (=EF) x6 | x6 (G^F) | G2 x6 | x6 (ED) | x8 | %11
 x8 | x4 C2 |] %13
V:3
 [C,C]2 | [=B,,G,]2 [C,G,]2 [F,A,]2 C2 | G,2 [G,,G,]2 [C,E,]2 C2 | B,2 B,2 [D,B,]2 [E,B,]2 | %4
 [A,C]2 [A,,C]2 !fermata![G,,=B,]2 [C,C]2 | [G,B,]2 [F,A,]2 [E,G,]2 ([F,=A,][G,=B,]) | %6
 [A,C]2 [G,D]2 [C,C]2 [F,=A,]2 | B,2 [=A,C]2 [G,D]2 ([C,E][D,D]) | %8
 (DC) [D,=A,]2 !fermata![G,B,]2 [F,A,]2 | [D,B,]2 [C,C]2 [B,,F,]2 E,2 | %10
 [A,,E,]2 [B,,B,]2 [E,G,]2 [=E,C]2 | [F,C]2 [G,=B,]2 ([A,C][G,_B,]) [F,A,]2 | %12
 G,2 (G,F,) !fermata![C,=E,]2 |] %13
V:4
 x2 | x6 (E,F,) | G,2 x2 C2 x2 | (G,A,) B,2 x4 | x8 | x8 | x8 | B,2 x6 | E,2 x6 | x6 (C,B,,) | x8 | %11
 x8 | G,2 G,,2 x2 |] %13

